X:872
T:Young Sandy Tulloch - strathspey
C:Jimmy Shand
S:Jimmy Shand Scottish Dance Album Bk.2 (1953)
Z:Nigel Gatherer
M:4/4
L:1/8
K:G
d | g>d (3efg d<GB>A | G>AB>A G<E_ED | E>D (3EFG D>EG>e | d>Ge>G F<AA
d | g>d (3efg d<GB>A | G>AB>A G<E_ED | E<GD>E G>AB>e | d>B (3ABc B<G G ||
c | B>Gd>c B>GD>c | B>Gd>B c/B/A/G/ A>c | B>Gd>c B>GD>G | E>A c/B/A/G/ D<G G
c | B>Gd>c B>GD>c | B>Gd>B c/B/A/G/ A>d | g>d (3efg d<GB>e | d>B (3ABc B<G G |]
<end>
<start>
